!! 00000] TT[00
!! NN
!!!OTL: Fang fengzheng
!!!ARE: Asia, China,ÿJiangxi, Pingxiang
!! Ethnic Group: Han
!! IV, 253
!!!SCT: C0414
!!!YEM: Copyright 1995, estate of Helmut Schaffrath.
**kern
*ICvox
*Ivox
*M4/4
*k[f#c#]
*D:
{8dd
16b
16a
8f#
16e
16f#
4.a
8dd
=1
8b
8a
8a
8f#
2a}
=2
{8.a
16b
4dd
8ee
8dd
8dd
16ee
16b
=3
8b
8a
8f#
16e
16f#
2a}
=4
{8dd
8dd
4ee
4dd
8b
8a
=5
16f#
16a
8b
4a}
{8dd
16b
16a
8dd
16b
16a
=6
16f#
16a
16b
16dd
4a}
{8.dd
16dd
8b
16b
16a
=7
8.f#
16a
8b
8dd
8a
8a
8dd
8f#
=8
4.e}
{16f#
16f#
4.e
16f#
16f#
=9
8.e
16f#
8a
8a
8b
4dd
8e
=10
8a
8a
8f#
8e
2d}
=11
{8f#
4e
16f#
16a
8b
16a
16b
16dd
8.dd
=12
8.f#
16a
8b
8dd
8a
8f#
8a}
{16ff#
16ff#
=13
8ee
8dd
8ee
8ff#
4.a
8ff#
=14
8ee
8dd
8ee
8ff#
4.a
8ff#}
=15
{8ee
8dd
8ee
8ff#
4.a
8ff#
=16
8ee
8dd
8ee
8ff#
4.a
8ff#}
=17
{8ee
8dd
8ee
8ff#
8ee
8dd
8ee
8ff#
=18
8ee
8dd
8ee
8ff#
8ee
8dd
8ee
8ff#
=19
2.a
8r}
{16f#
16f#
=20
4e
8r
16f#
16f#
4e
8r
16f#
16f#
=21
8.e
16f#
8a
8a
8b
4dd
8e
=22
8f#
8a
8f#
8e
2d}
==
!!!AGN: Xiaodiao, Shidiao, Jiandianhua diao, Wuge, Dengge,
!!    Chuntian yule
!! Variante von Jian jian hua diao. Aehnelt der des Nordens.
!!    Atemzeichen, Glissandi.  Kodiert ist der Notentext der 5. Strophe.
!!    Die 1.-4. Strophe ist jeweils dem Text entsprechend um folgendes Motiv
!!    oder um dessen Varianten erweitert: +1_65+1__356+15__, nach Phrase 3 )
!!    Vorspiel weggelassen.
!!!ONB: ESAC (Essen Associative Code) Database: CHINA
!!!AMT: simple quadruple
!!!AIN: vox
!!!EED: Helmut Schaffrath
!!!EEV: 1.0
*-
